!!!COM:	Josquin des Pres
**kern	**kern
*part2	*part1
*staff2	*staff1
*clefF4	*clefGv2
*k[b-]	*k[b-]
*M2/1	*M2/1
=1-	=1-
[0D	[0A
=2	=2
0D]	1A]
.	[1B-
=3	=3
0GG	2B-]
.	2G
.	[1G
=4	=4
0G	1G]
.	[1d
=5	=5
0G	1d]
.	[1e
=6	=6
1.A	2e]
.	2c
.	[1c
2F	.
=7	=7
0F	1c]
.	1f
=8	=8
1B-	1d
1G	[1e
=9	=9
1.A	2e]
.	2c
.	[1c
2F	.
=10	=10
0F	1c]
.	1d
=11	=11
1G	1B-
1E	[1c
=12	=12
1.F	2c]
.	2A
.	[1A
2D	.
=13	=13
0D	1A]
.	1B-
=14	=14
1E	1G
1C	[1A
=15	=15
1.D	2A]
.	2F
.	[1F
2BB-	.
=16	=16
0BB-	1F]
.	1G
=17	=17
1C	1E
1AA	[1F
=18	=18
1.BB-	2F]
.	2D
.	[1D
2GG	.
=19	=19
0GG	1D]
.	[1d
=20	=20
0G	1d]
.	1B-
=21	=21
1E	1c
1F	[1d
=22	=22
1.G	2d]
.	2G
.	[1G
2C	.
=23	=23
0C	1G]
.	[1c
=24	=24
0F	1c]
.	1A
=25	=25
1D	1B-
1E	[1c
=26	=26
1.F	2c]
.	2F
.	[1F
2BB-	.
=27	=27
0BB-	1F]
.	[1f
=28	=28
1.B-	2f]
.	2e
.	2d
2A	2c
=29	=29
2G	2d
2F	2f
2G	2e
2B-	2d
=30	=30
2A	2c
2G	2B-
2F	2A
2E	2G
=31	=31
2D	2A
2C	2c
2D	2B-
2F	2A
=32	=32
2E	2G
2D	2F
2C	2E
2BB-	2D
=33	=33
2AA	2E
2GG	2G
2AA	2F
2C	2E
=34	=34
2BB-	2.G
2.GG	.
.	4F
.	2.D
4AA	.
4BB-	.
4C	4E
=35	=35
1D	4F
.	4G
.	1A
2F	.
2E	2c
=36	=36
2D	2B-
2.F	2A
.	2.c
4E	.
[2C	.
.	4B-
=37	=37
4C]	2.G
4D	.
4E	.
4F	4A
1G	4B-
.	4c
.	[2d
=38	=38
2B-	2d]
2A	2f
2G	2e
[2B-	2d
=39	=39
4B-]	2.f
4A	.
2.F	.
.	4e
.	2c
4E	.
[2G	2B-
=40	=40
4G]	2.d
4F	.
2.D	.
.	4c
.	2A
4C	.
[2E	2G
=41	=41
4E]	2.B-
4D	.
2.BB-	.
.	4A
.	2F
4AA	.
[2C	2E
=42	=42
4C]	2.G
4BB-	.
2GG	.
.	4F
2BB-	2D
2AA	2F
=43	=43
1C	2E
.	1G
2GG	.
2BB-	2D
=44	=44
2AA	2F
2C	2E
2BB-	2G
[2D	2F
=45	=45
2D]	1A
2C	.
2E	2G
2D	2B-
=46	=46
2F	2A
2E	2c
1G	2B-
.	[2d
=47	=47
2.GG	2d]
.	2.D
4FF	.
4GG	.
4AA	4C
4BB-	4D
4C	4E
=48	=48
4D	4F
4E	4G
2.F	4A
.	4B-
.	2.c
4E	.
4C	.
4D	4B-
=49	=49
4E	2G
4F	.
2.G	2.B-
4F	4A
4G	4B-
4E	4c
=50	=50
2F	2A
2G	2.B-
2D	.
.	4A
2GG	4B-
.	4c
=51	=51
2D	2A
2GG	2.B-
2D	.
.	4A
2GG	4B-
.	4c
=52	=52
2D	4A
.	4G
2GG	2.B-
2BB-	.
.	4A
2C	[2G
=53	=53
2AA	2G]
2D	2F
2r	2G
4GG	[2B-
4AA	.
=54	=54
4BB-	4B-]
4C	4A
4D	4B-
4E	4c
2F	2A
[2G	[2B-
=55	=55
4G]	4B-]
4F	4A
4G	4B-
4E	4c
4F	4A
4E	4G
4D	[2B-
4C	.
=56	=56
2BB-	4B-]
.	4A
2C	1G
1AA	.
.	2F
=57	=57
0GG	0G
==	==
*-	*-
